src/assets/icons/check-square.svg

<svg width="14" height="14" viewBox="0 0 14 14" fill="none" xmlns="http://www.w3.org/2000/svg">
<g id="check-square">
<g clip-path="url(#clip0_156_4585)">
<path id="Vector" fill-rule="evenodd" clip-rule="evenodd" d="M2.2 0C0.988629 0 0 0.988629 0 2.2V11.8C0 13.0114 0.988629 14 2.2 14H11.8C13.0114 14 14 13.0114 14 11.8V5.63198C14 5.30061 13.7314 5.03198 13.4 5.03198C13.0686 5.03198 12.8 5.30061 12.8 5.63198V11.8C12.8 12.3486 12.3486 12.8 11.8 12.8H2.2C1.65137 12.8 1.2 12.3486 1.2 11.8V2.2C1.2 1.65137 1.65137 1.2 2.2 1.2H9.288C9.61937 1.2 9.888 0.931371 9.888 0.6C9.888 0.268629 9.61937 0 9.288 0H2.2ZM13.4243 2.22426C13.6586 1.98995 13.6586 1.61005 13.4243 1.37574C13.19 1.14142 12.8101 1.14142 12.5757 1.37574L5.8 8.15147L3.82426 6.17574C3.58995 5.94142 3.21005 5.94142 2.97574 6.17574C2.74142 6.41005 2.74142 6.78995 2.97574 7.02426L5.37574 9.42426C5.61005 9.65858 5.98995 9.65858 6.22426 9.42426L13.4243 2.22426Z" fill="black"/>
</g>
</g>
<defs>
<clipPath id="clip0_156_4585">
<rect width="14" height="14" fill="white"/>
</clipPath>
</defs>
</svg>

<svg xmlns="http://www.w3.org/2000/svg" fill="none" viewBox="0 0 14 14"><g clip-path="url(#a)"><path fill="#000" fill-rule="evenodd" d="M2.2 0C.989 0 0 .989 0 2.2v9.6C0 13.011.989 14 2.2 14h9.6c1.211 0 2.2-.989 2.2-2.2V5.632a.6.6 0 1 0-1.2 0V11.8c0 .549-.451 1-1 1H2.2c-.549 0-1-.451-1-1V2.2c0-.549.451-1 1-1h7.088a.6.6 0 0 0 0-1.2zm11.224 2.224a.6.6 0 1 0-.848-.848L5.8 8.15 3.824 6.176a.6.6 0 1 0-.848.848l2.4 2.4a.6.6 0 0 0 .848 0z" clip-rule="evenodd"/></g><defs><clipPath id="a"><path fill="#fff" d="M0 0h14v14H0z"/></clipPath></defs></svg>
